src/pos-icons/comment-remove-outline.svg

<svg height="24" viewBox="0 0 24 24" width="24" xmlns="http://www.w3.org/2000/svg"><path d="m9 22a1 1 0 0 1 -1-1v-3h-4a2 2 0 0 1 -2-2v-12c0-1.11.9-2 2-2h16a2 2 0 0 1 2 2v12a2 2 0 0 1 -2 2h-6.1l-3.7 3.71c-.2.19-.45.29-.7.29zm1-6v3.08l3.08-3.08h6.92v-12h-16v12zm-.59-10 2.59 2.59 2.59-2.59 1.41 1.41-2.59 2.59 2.59 2.59-1.41 1.41-2.59-2.59-2.59 2.59-1.41-1.41 2.59-2.59-2.59-2.59z"/></svg>

<?xml version="1.0" encoding="UTF-8"?><!DOCTYPE svg PUBLIC "-//W3C//DTD SVG 1.1//EN" "http://www.w3.org/Graphics/SVG/1.1/DTD/svg11.dtd"><svg xmlns="http://www.w3.org/2000/svg" xmlns:xlink="http://www.w3.org/1999/xlink" version="1.1" id="mdi-comment-remove-outline" width="24" height="24" viewBox="0 0 24 24"><path d="M9,22A1,1 0 0,1 8,21V18H4A2,2 0 0,1 2,16V4C2,2.89 2.9,2 4,2H20A2,2 0 0,1 22,4V16A2,2 0 0,1 20,18H13.9L10.2,21.71C10,21.9 9.75,22 9.5,22V22H9M10,16V19.08L13.08,16H20V4H4V16H10M9.41,6L12,8.59L14.59,6L16,7.41L13.41,10L16,12.59L14.59,14L12,11.41L9.41,14L8,12.59L10.59,10L8,7.41L9.41,6Z" /></svg>
